static/logos/livechat-wordmark-color.svg

<svg width="100" height="23" viewBox="0 0 100 23" fill="none" xmlns="http://www.w3.org/2000/svg">
<g clip-path="url(#clip0_1_2156)">
<path d="M17.1454 3.84363C13.3293 3.56953 9.07873 3.56954 5.26262 3.84363C4.46379 3.90101 3.85853 4.51269 3.79847 5.26034C3.60584 7.65806 3.58022 11.2503 3.75684 13.6456C3.81519 14.4368 4.50982 15.1159 5.44957 15.1159H8.39552V18.75L5.45557 18.7479C2.75857 18.7479 0.337746 16.7489 0.128634 13.9131C-0.061743 11.3315 -0.0354486 7.55239 0.172087 4.96901C0.380075 2.37999 2.46197 0.397371 5.00198 0.214927C8.99164 -0.0716416 13.4164 -0.0716428 17.406 0.214926C19.946 0.397369 22.028 2.37999 22.236 4.96901C22.4435 7.55239 22.4344 11.3315 22.244 13.9131C22.0349 16.7489 19.6197 18.756 16.9227 18.756L14.0131 18.754L8.39552 22.3881V18.75L14.0131 15.1159H16.9231C17.8628 15.1159 18.5575 14.4368 18.6158 13.6456C18.7925 11.2503 18.8022 7.65806 18.6096 5.26034C18.5495 4.51269 17.9443 3.90101 17.1454 3.84363Z" fill="#FE5000"/>
<path d="M27.9531 15.9735H36.7449V13.766H30.6173V2.65259H27.9531V15.9735Z" fill="#1B1B20"/>
<path d="M38.0218 15.9736H40.6099V6.07805H38.0218V15.9736ZM37.8125 3.48999C37.8125 4.34633 38.4405 4.99335 39.3159 4.99335C40.1912 4.99335 40.8192 4.34633 40.8192 3.48999C40.8192 2.63365 40.1912 1.98663 39.3159 1.98663C38.4405 1.98663 37.8125 2.63365 37.8125 3.48999Z" fill="#1B1B20"/>
<path d="M50.7591 6.078H48.1711L46.0397 13.3284L43.9084 6.078H41.3203L44.6886 15.9735H47.3908L50.7591 6.078Z" fill="#1B1B20"/>
<path d="M55.3787 16.2018C57.5671 16.2018 59.3369 14.8887 59.6794 13.0809H57.4149C57.1675 13.766 56.4824 14.3369 55.3787 14.3369C53.8753 14.3369 53.2854 13.3283 53.2854 12.1675V11.9201H59.7555V10.1884C59.7555 7.80964 58.2712 5.84955 55.3406 5.84955C52.3719 5.84955 50.7734 7.75255 50.7734 10.4358V11.7869C50.7734 14.5652 52.5813 16.2018 55.3787 16.2018ZM53.2854 9.99807C53.2854 8.66598 53.8563 7.67643 55.3406 7.67643C56.7298 7.67643 57.3768 8.60889 57.3768 9.84583V10.0932H53.2854V9.99807Z" fill="#1B1B20"/>
<path d="M66.6356 16.24C70.0039 16.24 72.0782 13.9564 72.2114 11.2351H69.7375C69.5662 12.7385 68.6147 14.0515 66.6356 14.0515C64.4091 14.0515 63.4576 12.5291 63.4576 10.3978V8.22839C63.4576 6.09705 64.4091 4.57466 66.6356 4.57466C68.6147 4.57466 69.5662 5.88772 69.7375 7.39108H72.2114C72.0782 4.66981 70.0039 2.38623 66.6356 2.38623C62.6203 2.38623 60.8125 4.95526 60.8125 8.3616V10.2646C60.8125 13.6709 62.6203 16.24 66.6356 16.24Z" fill="#1B1B20"/>
<path d="M73.6172 15.9736H76.2054V10.1124C76.2054 8.78027 76.9472 8.0952 78.1084 8.0952C79.3644 8.0952 79.9158 8.91348 79.9158 10.0553V15.9736H82.5039V9.63661C82.5039 7.29591 81.1532 5.84964 79.0024 5.84964C77.7278 5.84964 76.7188 6.4015 76.2054 7.25785V2.08173H73.6172V15.9736Z" fill="#1B1B20"/>
<path d="M87.4446 16.2018C88.5864 16.2018 89.8423 15.7261 90.299 15.06V15.9734H92.7916V9.65553C92.7916 7.35291 91.0983 5.84955 88.6244 5.84955C86.4931 5.84955 84.9513 6.87716 84.3804 8.79919H86.7781C87.0446 8.26635 87.5968 7.86673 88.4908 7.86673C89.5565 7.86673 90.2035 8.5518 90.2035 9.46524V10.8164C89.7468 10.4358 88.8714 9.97904 87.6916 9.97904C85.3132 9.97904 83.6953 10.9686 83.6953 13.119C83.6953 15.041 85.2177 16.2018 87.4446 16.2018ZM88.1102 14.4891C87.0259 14.4891 86.2073 13.9563 86.2073 13.0428C86.2073 12.1294 86.9684 11.6346 88.1864 11.6346C89.3475 11.6346 90.2035 12.1484 90.2035 13.0238C90.2035 13.8611 89.252 14.4891 88.1102 14.4891Z" fill="#1B1B20"/>
<path d="M97.6278 15.9734H99.4166V13.8801H98.3696C97.6846 13.8801 97.4375 13.6137 97.4375 12.9667V8.17116H99.5495V6.07791H97.4375V3.37567H94.8301V6.07791H93.4219V8.17116H94.8301V13.157C94.8301 14.9077 95.7249 15.9734 97.6278 15.9734Z" fill="#1B1B20"/>
</g>
<defs>
<clipPath id="clip0_1_2156">
<rect width="100" height="22.3881" fill="white"/>
</clipPath>
</defs>
</svg>

<svg xmlns="http://www.w3.org/2000/svg" width="278.261" height="64" fill="none" viewBox="0 0 100 23"><g clip-path="url(#a)"><path fill="#FE5000" d="M17.145 3.844a85.961 85.961 0 0 0-11.882 0c-.8.057-1.404.669-1.465 1.416-.192 2.398-.218 5.99-.041 8.386.058.79.753 1.47 1.693 1.47h2.946v3.634l-2.94-.002c-2.697 0-5.118-2-5.327-4.835-.19-2.582-.164-6.36.043-8.944C.38 2.38 2.462.397 5.002.215a89.591 89.591 0 0 1 12.404 0c2.54.182 4.622 2.165 4.83 4.754.207 2.583.198 6.362.008 8.944-.21 2.836-2.624 4.843-5.321 4.843l-2.91-.002-5.617 3.634V18.75l5.617-3.634h2.91c.94 0 1.635-.68 1.693-1.47.177-2.396.186-5.988-.006-8.386-.06-.747-.666-1.359-1.465-1.416Z"/><path fill="#1B1B20" d="M27.953 15.973h8.792v-2.207h-6.128V2.653h-2.664v13.32ZM38.022 15.974h2.588V6.078h-2.588v9.896Zm-.21-12.484c0 .856.629 1.503 1.504 1.503s1.503-.647 1.503-1.503c0-.856-.628-1.503-1.503-1.503-.876 0-1.504.647-1.504 1.503ZM50.76 6.078H48.17l-2.131 7.25-2.132-7.25H41.32l3.369 9.895h2.702l3.368-9.895ZM55.379 16.202c2.188 0 3.958-1.313 4.3-3.121h-2.264c-.248.685-.933 1.256-2.036 1.256-1.504 0-2.094-1.009-2.094-2.17v-.247h6.47v-1.732c0-2.378-1.484-4.338-4.414-4.338-2.97 0-4.568 1.903-4.568 4.586v1.35c0 2.78 1.808 4.416 4.606 4.416Zm-2.094-6.204c0-1.332.571-2.322 2.056-2.322 1.389 0 2.036.933 2.036 2.17v.247h-4.092v-.095ZM66.636 16.24c3.368 0 5.442-2.284 5.575-5.005h-2.474c-.17 1.504-1.122 2.817-3.101 2.817-2.227 0-3.178-1.523-3.178-3.654v-2.17c0-2.13.951-3.653 3.178-3.653 1.979 0 2.93 1.313 3.102 2.816h2.473c-.133-2.721-2.207-5.005-5.575-5.005-4.016 0-5.823 2.57-5.823 5.976v1.903c0 3.406 1.807 5.975 5.823 5.975ZM73.617 15.974h2.588v-5.862c0-1.332.742-2.017 1.903-2.017 1.256 0 1.808.818 1.808 1.96v5.919h2.588V9.637c0-2.341-1.35-3.787-3.502-3.787-1.274 0-2.283.552-2.797 1.408V2.082h-2.588v13.892ZM87.445 16.202c1.141 0 2.397-.476 2.854-1.142v.913h2.493V9.656c0-2.303-1.694-3.806-4.168-3.806-2.13 0-3.673 1.027-4.244 2.95h2.398c.267-.534.819-.933 1.713-.933 1.066 0 1.713.685 1.713 1.598v1.351c-.457-.38-1.333-.837-2.512-.837-2.379 0-3.997.99-3.997 3.14 0 1.922 1.523 3.083 3.75 3.083Zm.665-1.713c-1.084 0-1.903-.533-1.903-1.446 0-.914.761-1.408 1.98-1.408 1.16 0 2.017.513 2.017 1.389 0 .837-.952 1.465-2.094 1.465ZM97.628 15.973h1.789V13.88H98.37c-.685 0-.933-.266-.933-.913V8.17h2.112V6.078h-2.112V3.376H94.83v2.702h-1.408V8.17h1.408v4.986c0 1.75.895 2.816 2.798 2.816Z"/></g><defs><clipPath id="a"><path fill="#fff" d="M0 0h100v22.388H0z"/></clipPath></defs></svg>
